svg/transport/UFO_2_line.svg

<?xml version="1.0" encoding="UTF-8"?>
<svg width="24px" height="24px" viewBox="0 0 24 24" version="1.1" xmlns="http://www.w3.org/2000/svg" xmlns:xlink="http://www.w3.org/1999/xlink">
    <title>UFO_2_line</title>
    <g id="Icon" stroke="none" stroke-width="1" fill="none" fill-rule="evenodd">
        <g id="Transport" transform="translate(-144.000000, -288.000000)">
            <g id="UFO_2_line" transform="translate(144.000000, 288.000000)">
                <path d="M24,0 L24,24 L0,24 L0,0 L24,0 Z M12.5935,23.2578 L12.5819,23.2595 L12.5109,23.295 L12.4919,23.2987 L12.4767,23.295 L12.4057,23.2595 C12.3958,23.2564 12.387,23.259 12.3821,23.2649 L12.378,23.2758 L12.3609,23.7031 L12.3659,23.7235 L12.3769,23.7357 L12.4805,23.8097 L12.4953,23.8136 L12.5071,23.8097 L12.6107,23.7357 L12.6233,23.7197 L12.6267,23.7031 L12.6096,23.2758 C12.6076,23.2657 12.601,23.2593 12.5935,23.2578 Z M12.8584,23.1453 L12.8445,23.1473 L12.6598,23.2397 L12.6499,23.2499 L12.6472,23.2611 L12.6651,23.6906 L12.6699,23.7034 L12.6784,23.7105 L12.8793,23.8032 C12.8914,23.8069 12.9022,23.803 12.9078,23.7952 L12.9118,23.7812 L12.8777,23.1665 C12.8753,23.1546 12.8674,23.147 12.8584,23.1453 Z M12.143,23.1473 C12.1332,23.1424 12.1222,23.1453 12.1156,23.1526 L12.1099,23.1665 L12.0758,23.7812 C12.0751,23.7927 12.0828,23.8019 12.0926,23.8046 L12.1083,23.8032 L12.3092,23.7105 L12.3186,23.7024 L12.3225,23.6906 L12.3404,23.2611 L12.3372,23.2485 L12.3278,23.2397 L12.143,23.1473 Z" id="MingCute" fill-rule="nonzero"></path>
                <path d="M15.2765,19.2076 C15.7853571,19.1439 16.2527403,19.4744184 16.3718381,19.9607198 L16.393,20.0756 L16.4932,20.8756 C16.5619,21.4236 16.1733,21.9235 15.6252,21.9921 C15.1163429,22.0558929 14.6490459,21.7253811 14.5298804,21.2390802 L14.5087,21.1242 L14.4085,20.3242 C14.3399,19.7762 14.7285,19.2763 15.2765,19.2076 Z M5.48629,18.2257 C5.93463214,18.4747429 6.11673031,19.0173801 5.92577698,19.4802659 L5.87504,19.5855 L5.37523,20.4855 C5.1071,20.9683 4.49833,21.1423 4.0155,20.8742 C3.56715786,20.62525 3.38505969,20.0825332 3.57601302,19.6197156 L3.62675,19.5145 L4.12655,18.6145 C4.39468,18.1316 5.00346,17.9576 5.48629,18.2257 Z M15.9710381,16.7608198 L15.9922,16.8757 L16.0924,17.6756 C16.1611,18.2237 15.7725,18.7235 15.2245,18.7922 C14.7156429,18.8559 14.2482597,18.5253816 14.1290818,18.0390802 L14.1079,17.9242 L14.0078,17.1242 C13.9391,16.5762 14.3277,16.0763 14.8757,16.0077 C15.3845571,15.944 15.8519403,16.2745184 15.9710381,16.7608198 Z M7.48549,14.6257 C7.93383214,14.87465 8.11593031,15.4173668 7.92497698,15.8801844 L7.87424,15.9854 L7.37444,16.8854 C7.10631,17.3683 6.49754,17.5423 6.01471,17.2742 C5.56636786,17.02525 5.38426969,16.4825332 5.57522302,16.0196356 L5.62596,15.9144 L6.12576,15.0144 C6.39389,14.5316 7.00266,14.3576 7.48549,14.6257 Z M13.5501058,3.23774337 L13.7978,3.2979 L13.8629,3.31534 C15.6754,3.801 17.0801,5.18598 17.616,6.93827 C18.9149,7.65358 20.008,8.49434 20.7458,9.4007 C21.5002,10.3272 21.9947,11.4737 21.6779,12.6561 C21.4507,13.5039 20.8632,14.1341 20.1471,14.5715 C19.437,15.0053 18.5523,15.283 17.5895,15.4349 C15.6611,15.739 13.2279,15.5683 10.7245,14.8975 C8.22111,14.2267 6.02859,13.158 4.51062,11.9304 C3.75272,11.3175 3.12537,10.6346 2.72732,9.90392 C2.32587,9.16704 2.13219,8.32747 2.35934,7.47971 C2.68069,6.28041 3.70563,5.5308 4.84354,5.10789 C5.92613,4.70554 7.27378,4.52928 8.73608,4.55885 C10.0154764,3.36611682 11.8129384,2.85898374 13.5501058,3.23774337 Z M7.48725,6.59145 C6.72038,6.65231 6.06247,6.78853 5.54028,6.9826 C4.68938,7.29885 4.37263,7.69343 4.29119,7.99735 C4.23247,8.21652 4.25295,8.52374 4.4836,8.9471 C4.71764,9.37671 5.14032,9.86747 5.76825,10.3753 C7.02196,11.3892 8.94434,12.35 11.2421,12.9657 C13.5399,13.5814 15.6852,13.7105 17.2779,13.4593 C18.0756,13.3335 18.687,13.1198 19.1045,12.8648 C19.5159,12.6134 19.6873,12.3576 19.746,12.1385 C19.8263,11.8388 19.7531,11.3491 19.1948,10.6634 C18.8389,10.2262 18.3295,9.76916 17.6812,9.32298 C17.2917,10.5851 16.1968,11.5931 14.6367,11.5009 C13.8096,11.452 12.8293,11.3206 11.7598,11.034 C10.6903,10.7474 9.77568,10.3711 9.03491,9.99985 C7.63768,9.29965 7.19346,7.87927 7.48725,6.59145 Z M9.69753,6.47031 C9.15966,7.18926 9.39507,7.94326 9.93096,8.21181 C10.567,8.53056 11.355,8.85501 12.2774,9.10217 C13.1999,9.34934 14.0445,9.46236 14.7547,9.50434 C15.3531,9.53971 15.934,9.00443 15.8277,8.11287 C15.6717,6.80532714 14.7725707,5.71366637 13.533638,5.30353934 L13.2802,5.22975 C11.9446,4.8719 10.5258,5.3632 9.69753,6.47031 Z" id="形状" fill="#09244B"></path>
            </g>
        </g>
    </g>
</svg>

<svg xmlns="http://www.w3.org/2000/svg" width="24" height="24"><g fill="none" fill-rule="evenodd"><path d="M24 0v24H0V0h24ZM12.594 23.258l-.012.002-.071.035-.02.004-.014-.004-.071-.036c-.01-.003-.019 0-.024.006l-.004.01-.017.428.005.02.01.013.104.074.015.004.012-.004.104-.074.012-.016.004-.017-.017-.427c-.002-.01-.009-.017-.016-.018Zm.264-.113-.014.002-.184.093-.01.01-.003.011.018.43.005.012.008.008.201.092c.012.004.023 0 .029-.008l.004-.014-.034-.614c-.003-.012-.01-.02-.02-.022Zm-.715.002a.023.023 0 0 0-.027.006l-.006.014-.034.614c0 .012.007.02.017.024l.015-.002.201-.093.01-.008.003-.011.018-.43-.003-.012-.01-.01-.184-.092Z"/><path fill="#09244B" d="M15.277 19.208a1 1 0 0 1 1.095.753l.021.115.1.8a1 1 0 0 1-1.963.363l-.021-.115-.1-.8a1 1 0 0 1 .867-1.116Zm-9.79-.982a1 1 0 0 1 .439 1.254l-.051.105-.5.9a1 1 0 0 1-1.799-.865l.05-.105.5-.9a1 1 0 0 1 1.36-.39ZM15.97 16.76l.021.115.1.8a1 1 0 0 1-1.963.363l-.021-.115-.1-.8a1 1 0 0 1 1.963-.363Zm-8.486-2.135a1 1 0 0 1 .44 1.254l-.05.105-.5.9a1 1 0 0 1-1.8-.865l.051-.106.5-.9a1 1 0 0 1 1.36-.388ZM13.55 3.238l.248.06.065.017a5.382 5.382 0 0 1 3.753 3.623c1.299.716 2.392 1.556 3.13 2.463.754.926 1.249 2.073.932 3.255-.227.848-.815 1.478-1.53 1.915-.711.434-1.596.712-2.558.864-1.929.304-4.362.133-6.865-.537-2.504-.671-4.696-1.74-6.214-2.968-.758-.612-1.386-1.295-1.784-2.026-.401-.737-.595-1.577-.368-2.424.322-1.2 1.347-1.95 2.485-2.372 1.082-.402 2.43-.579 3.892-.55a5.382 5.382 0 0 1 4.814-1.32ZM7.487 6.59c-.767.061-1.425.198-1.947.392-.85.316-1.167.71-1.249 1.014-.059.22-.038.527.193.95.234.43.656.92 1.284 1.428 1.254 1.014 3.176 1.975 5.474 2.59 2.298.616 4.443.745 6.036.494.798-.125 1.409-.34 1.827-.594.41-.252.582-.507.641-.726.08-.3.007-.79-.551-1.476-.356-.437-.866-.894-1.514-1.34-.39 1.262-1.484 2.27-3.044 2.178A14.425 14.425 0 0 1 9.035 10C7.638 9.3 7.193 7.88 7.487 6.59Zm2.21-.12c-.537.718-.302 1.472.234 1.74a12.425 12.425 0 0 0 4.824 1.293c.598.036 1.179-.5 1.073-1.391a3.382 3.382 0 0 0-2.294-2.81l-.254-.073a3.381 3.381 0 0 0-3.582 1.24Z"/></g></svg>
